packages/ffe-icons/icons/open/500/md/align_justify_center.svg

<svg xmlns="http://www.w3.org/2000/svg" height="24" viewBox="0 -960 960 960" width="24"><path d="M480-71.87q-19.152 0-32.326-13.173Q434.5-98.217 434.5-117.37v-725.26q0-19.153 13.174-32.327T480-888.131q19.152 0 32.326 13.174T525.5-842.63v725.26q0 19.153-13.174 32.327T480-71.87ZM641.435-274.5q-19.152 0-32.326-13.174T595.935-320v-320q0-19.152 13.174-32.326t32.326-13.174h40q19.152 0 32.326 13.174T726.935-640v320q0 19.152-13.174 32.326T681.435-274.5h-40Zm-362.87 0q-19.152 0-32.326-13.174T233.065-320v-320q0-19.152 13.174-32.326t32.326-13.174h40q19.152 0 32.326 13.174T364.065-640v320q0 19.152-13.174 32.326T318.565-274.5h-40Z"/></svg>

<svg xmlns="http://www.w3.org/2000/svg" height="24" viewBox="0 -960 960 960" width="24"><path d="M480-71.87q-19.15 0-32.33-13.17-13.17-13.18-13.17-32.33v-725.26q0-19.15 13.17-32.33 13.18-13.17 32.33-13.17t32.33 13.17q13.17 13.18 13.17 32.33v725.26q0 19.15-13.17 32.33Q499.15-71.87 480-71.87ZM641.43-274.5q-19.15 0-32.32-13.17-13.18-13.18-13.18-32.33v-320q0-19.15 13.18-32.33 13.17-13.17 32.32-13.17h40q19.16 0 32.33 13.17 13.17 13.18 13.17 32.33v320q0 19.15-13.17 32.33-13.17 13.17-32.33 13.17h-40Zm-362.86 0q-19.16 0-32.33-13.17-13.17-13.18-13.17-32.33v-320q0-19.15 13.17-32.33 13.17-13.17 32.33-13.17h40q19.15 0 32.32 13.17 13.18 13.18 13.18 32.33v320q0 19.15-13.18 32.33-13.17 13.17-32.32 13.17h-40Z"/></svg>
